svg/message_text_lock_outline.svg

<svg xmlns="http://www.w3.org/2000/svg" viewBox="0 0 24 24"><path d="M23 3v-.5a2.5 2.5 0 0 0-5 0V3c-.55 0-1 .45-1 1v4c0 .55.45 1 1 1h5c.55 0 1-.45 1-1V4c0-.55-.45-1-1-1m-1 0h-3v-.5c0-.83.67-1.5 1.5-1.5s1.5.67 1.5 1.5zM6 11h9v2H6zm0-4h9v2H6zm16 4v5c0 1.11-.89 2-2 2H6l-4 4V4a2 2 0 0 1 2-2h11v2H4v13.17L5.17 16H20v-5z"/></svg>

<?xml version="1.0" encoding="UTF-8"?><!DOCTYPE svg PUBLIC "-//W3C//DTD SVG 1.1//EN" "http://www.w3.org/Graphics/SVG/1.1/DTD/svg11.dtd"><svg xmlns="http://www.w3.org/2000/svg" xmlns:xlink="http://www.w3.org/1999/xlink" version="1.1" id="mdi-message-text-lock-outline" width="24" height="24" viewBox="0 0 24 24"><path d="M23 3V2.5C23 1.12 21.88 0 20.5 0S18 1.12 18 2.5V3C17.45 3 17 3.45 17 4V8C17 8.55 17.45 9 18 9H23C23.55 9 24 8.55 24 8V4C24 3.45 23.55 3 23 3M22 3H19V2.5C19 1.67 19.67 1 20.5 1S22 1.67 22 2.5V3M6 11H15V13H6V11M6 7H15V9H6V7M22 11V16C22 17.11 21.11 18 20 18H6L2 22V4C2 2.89 2.9 2 4 2H15V4H4V17.17L5.17 16H20V11H22Z" /></svg>
